X: 2
T: Oyster River Hornpipe  v.1
P: Piffero primo b0035
O: safd 115
%R: hornpipe, march
F: http://ancients.sudburymuster.org/mus/ssp/pdf/mountainF.pdf
Z: 2019 John Chambers <jc:trillian.mit.edu>
M: 2/4
L: 1/16
K: G
D2 |\
G2B2 BAGA | B2e2 efge | d2B2 A2GA | BcBA GFED |\
G2B2 BAGA | B2e2 efge | d2B2 A2GA | B2G2 G2 :|
|: A |\
d3e  dcBA | d2d2 e2de | f2f2 e2de | f2fe dcBA |\
Bcde dcBA | d2d2 e2de | f2f2 e2de  f2d2 d2 :|


